images/ProcessIcons/Identifying Platforms.svg

<svg width="24" height="24" viewBox="0 0 24 24" fill="none" xmlns="http://www.w3.org/2000/svg">
<path d="M19 10.5L21.5 15L19 15.5V18.5H17.5L14.5 18L14 21.5H6.5L5.5 16.3095C3.96 14.8515 3 12.788 3 10.5C3 6.0815 6.5815 2.5 11 2.5C15.4185 2.5 19 6.0815 19 10.5Z" stroke="black" stroke-width="1.4" stroke-linecap="round" stroke-linejoin="round"/>
<path d="M8.5 9.5C8.5 9.00555 8.64662 8.5222 8.92133 8.11108C9.19603 7.69995 9.58648 7.37952 10.0433 7.1903C10.5001 7.00108 11.0028 6.95157 11.4877 7.04804C11.9727 7.1445 12.4181 7.3826 12.7678 7.73223C13.1174 8.08187 13.3555 8.52732 13.452 9.01228C13.5484 9.49723 13.4989 9.9999 13.3097 10.4567C13.1205 10.9135 12.8 11.304 12.3889 11.5787C11.9778 11.8534 11.4945 12 11 12V13.5M11 16.5V17" stroke="black" stroke-width="1.4" stroke-linecap="round" stroke-linejoin="round"/>
</svg>

<svg xmlns="http://www.w3.org/2000/svg" width="24" height="24" fill="none" stroke="#000" stroke-width="1.4" stroke-linejoin="round" xmlns:v="https://vecta.io/nano"><path d="M19 10.5l2.5 4.5-2.5.5v3h-1.5l-3-.5-.5 3.5H6.5l-1-5.19C3.96 14.852 3 12.788 3 10.5a8 8 0 1 1 16 0z"/><path d="M8.5 9.5a2.5 2.5 0 0 1 1.543-2.31 2.5 2.5 0 0 1 2.724.542 2.5 2.5 0 0 1 .542 2.724A2.5 2.5 0 0 1 11 12v1.5m0 3v.5" stroke-linecap="round"/></svg>
